client/src/assets/iconmonstr-compass-2-plain.svg

<?xml version="1.0" encoding="UTF-8" standalone="no"?>
<svg
   xmlns:dc="http://purl.org/dc/elements/1.1/"
   xmlns:cc="http://creativecommons.org/ns#"
   xmlns:rdf="http://www.w3.org/1999/02/22-rdf-syntax-ns#"
   xmlns:svg="http://www.w3.org/2000/svg"
   xmlns="http://www.w3.org/2000/svg"
   id="svg4"
   version="1.1"
   viewBox="0 0 200 200"
   height="200"
   width="200">
  <metadata
     id="metadata10">
    <rdf:RDF>
      <cc:Work
         rdf:about="">
        <dc:format>image/svg+xml</dc:format>
        <dc:type
           rdf:resource="http://purl.org/dc/dcmitype/StillImage" />
        <dc:title></dc:title>
      </cc:Work>
    </rdf:RDF>
  </metadata>
  <defs
     id="defs8" />
  <path
     id="path2"
     d="M 41.666016,41.675781 59.867188,70.267578 C 62.808855,66.309244 66.307813,62.808333 70.257812,59.875 Z m 116.667964,0 -29.34179,17.640625 c 4.51666,3.225 8.46692,7.166926 11.68359,11.683594 z m -71.389199,24.148476 -4.845172,6.14254 c -4.766667,3.05 -8.616406,7.308594 -11.316406,12.308594 L 55.855469,87.591797 68.40625,91.03125 v 4.203125 L 52.734375,99.5 c -0.666667,0.177083 -1.395833,0.286458 -2.1875,0.328125 v 0.0625 c 0.739583,0.05209 1.458333,0.177095 2.15625,0.374995 l 15.703125,4.28126 v 4.29687 l -12.660156,3.54102 15.037109,3.33984 c 2.7,5 6.549739,9.25859 11.316406,12.30859 L 100,200 117.97461,128 c 4.75833,-3.05834 8.58372,-7.32422 11.27539,-12.32422 L 200,100 129.23242,84.300781 c -2.7,-5.024999 -6.56576,-9.301042 -11.35742,-12.359375 l -4.76408,-6.58596 z M 100,83.333984 c 9.19999,0 16.66602,7.466017 16.66602,16.666016 0,9.2 -7.46603,16.66602 -16.66602,16.66602 C 90.8,116.66602 83.333984,109.2 83.333984,100 83.333984,90.800001 90.8,83.333984 100,83.333984 Z m 42.3125,5.908204 c 3.60417,0 6.47917,0.989581 8.625,2.96875 2.14583,1.979166 3.21875,4.66666 3.21875,8.062502 0,3.14583 -1.04167,5.67708 -3.125,7.59375 -2.08333,1.92708 -4.80729,2.89062 -8.17187,2.89062 -3.65626,0 -6.54688,-0.98438 -8.67188,-2.95312 -2.125,-1.96876 -3.1875,-4.59896 -3.1875,-7.890628 0,-3.229166 1.04688,-5.817709 3.14062,-7.765624 2.09376,-1.9375 4.81771,-2.90625 8.17188,-2.90625 z M 48.255859,89.279297 0,100 47.728516,110.60352 62.40625,106.96875 c 0.6875,-0.16667 1.40625,-0.27083 2.15625,-0.3125 v -0.0781 c -0.53125,-0.0417 -1.25,-0.18748 -2.15625,-0.4375 L 46,101.54688 v -3.82813 l 16.53125,-4.25 c 0.5625,-0.145833 1.229167,-0.255208 2,-0.328125 v -0.0625 c -0.520833,-0.03125 -1.208333,-0.151038 -2.0625,-0.359375 z m 94.291021,3.869141 c -2.48959,0 -4.4948,0.625 -6.01563,1.875 -1.52083,1.25 -2.28125,2.885416 -2.28125,4.90625 0,2.145832 0.72396,3.838542 2.17188,5.078122 1.44791,1.23959 3.47395,1.85938 6.07812,1.85938 2.67708,0 4.74479,-0.60417 6.20312,-1.8125 1.45834,-1.19792 2.1875,-2.85417 2.1875,-4.96875 0,-2.052092 -0.76562,-3.723959 -2.29687,-5.015628 -1.53125,-1.28125 -3.54687,-1.921874 -6.04687,-1.921874 z m -83.230474,35.843752 -17.65039,29.34179 29.367187,-17.625 c -4.533333,-3.23333 -8.491797,-7.1918 -11.716797,-11.71679 z m 80.808594,0.75 c -2.93334,3.94999 -6.425,7.44167 -10.375,10.375 l 28.58398,18.21679 z m -48.710938,2.85156 h 17.328128 v 1.70313 L 96.414062,151.84375 H 107.78906 V 155 H 91.257812 v -1.625 L 103.53906,135.73438 H 91.414062 Z"
     style="fill:#ffffff;fill-opacity:1;stroke-width:1" />
  <path
     id="path2-7"
     d="M 100.0127,0 82.112301,71.966797 c 11.805361,-6.718401 23.988189,-7.039159 35.775399,-0.02539 z m -9.500018,42.59375 h 4.32813 l 10.343748,16.078125 c 0.4375,0.666667 0.71874,1.125 0.84374,1.375 h 0.0625 c -0.10416,-0.59375 -0.15624,-1.598958 -0.15624,-3.015625 v -14.4375 h 3.57813 V 65 h -4.0625 L 94.747061,48.53125 c -0.270839,-0.416667 -0.4948,-0.848958 -0.671879,-1.296875 h -0.0937 c 0.0833,0.479167 0.12499,1.505208 0.12499,3.078125 V 65 h -3.593789 z"
     style="fill:#ff0000;fill-opacity:1;stroke-width:1" />
  <g
     id="text849"
     style="font-style:normal;font-weight:normal;font-size:32px;line-height:1.25;font-family:sans-serif;letter-spacing:0px;word-spacing:0px;fill:#000000;fill-opacity:1;stroke:none"
     aria-label="N" />
</svg>

<?xml version="1.0" encoding="UTF-8" standalone="no"?>
<svg
   xmlns:dc="http://purl.org/dc/elements/1.1/"
   xmlns:cc="http://creativecommons.org/ns#"
   xmlns:rdf="http://www.w3.org/1999/02/22-rdf-syntax-ns#"
   xmlns:svg="http://www.w3.org/2000/svg"
   xmlns="http://www.w3.org/2000/svg"
   id="svg4"
   version="1.1"
   viewBox="0 0 200 200"
   height="200"
   width="200">
  <metadata
     id="metadata10">
    <rdf:RDF>
      <cc:Work
         rdf:about="">
        <dc:format>image/svg+xml</dc:format>
        <dc:type
           rdf:resource="http://purl.org/dc/dcmitype/StillImage" />
        <dc:title></dc:title>
      </cc:Work>
    </rdf:RDF>
  </metadata>
  <defs
     id="defs8" />
  <path
     id="path2"
     d="M 41.666016 41.675781 L 59.867188 70.267578 C 62.808855 66.309244 66.307813 62.808333 70.257812 59.875 L 41.666016 41.675781 z M 158.33398 41.675781 L 128.99219 59.316406 C 133.50885 62.541406 137.45911 66.483332 140.67578 71 L 158.33398 41.675781 z M 99.185547 63.390625 L 82.099609 71.966797 C 77.332942 75.016797 73.483203 79.275391 70.783203 84.275391 L 55.855469 87.591797 L 68.40625 91.03125 L 68.40625 95.234375 L 52.734375 99.5 C 52.067708 99.677083 51.338542 99.786458 50.546875 99.828125 L 50.546875 99.890625 C 51.286458 99.942712 52.005208 100.06772 52.703125 100.26562 L 68.40625 104.54688 L 68.40625 108.84375 L 55.746094 112.38477 L 70.783203 115.72461 C 73.483203 120.72461 77.332942 124.9832 82.099609 128.0332 L 100 200 L 117.97461 128 C 122.73294 124.94166 126.55833 120.67578 129.25 115.67578 L 200 100 L 129.23242 84.300781 C 126.53242 79.275782 122.66666 74.999739 117.875 71.941406 L 99.185547 63.390625 z M 100 83.333984 C 109.19999 83.333984 116.66602 90.800001 116.66602 100 C 116.66602 109.2 109.19999 116.66602 100 116.66602 C 90.8 116.66602 83.333984 109.2 83.333984 100 C 83.333984 90.800001 90.8 83.333984 100 83.333984 z M 142.3125 89.242188 C 145.91667 89.242188 148.79167 90.231769 150.9375 92.210938 C 153.08333 94.190104 154.15625 96.877598 154.15625 100.27344 C 154.15625 103.41927 153.11458 105.95052 151.03125 107.86719 C 148.94792 109.79427 146.22396 110.75781 142.85938 110.75781 C 139.20312 110.75781 136.3125 109.77343 134.1875 107.80469 C 132.0625 105.83593 131 103.20573 131 99.914062 C 131 96.684896 132.04688 94.096353 134.14062 92.148438 C 136.23438 90.210938 138.95833 89.242188 142.3125 89.242188 z M 48.255859 89.279297 L 0 100 L 47.728516 110.60352 L 62.40625 106.96875 C 63.09375 106.80208 63.8125 106.69792 64.5625 106.65625 L 64.5625 106.57812 C 64.03125 106.53647 63.3125 106.39064 62.40625 106.14062 L 46 101.54688 L 46 97.71875 L 62.53125 93.46875 C 63.09375 93.322917 63.760417 93.213542 64.53125 93.140625 L 64.53125 93.078125 C 64.010417 93.046878 63.322917 92.927087 62.46875 92.71875 L 48.255859 89.279297 z M 142.54688 93.148438 C 140.05729 93.148438 138.05208 93.773438 136.53125 95.023438 C 135.01042 96.273438 134.25 97.908854 134.25 99.929688 C 134.25 102.07552 134.97396 103.76823 136.42188 105.00781 C 137.86979 106.2474 139.89583 106.86719 142.5 106.86719 C 145.17708 106.86719 147.24479 106.26302 148.70312 105.05469 C 150.16146 103.85677 150.89062 102.20052 150.89062 100.08594 C 150.89062 98.033848 150.125 96.361981 148.59375 95.070312 C 147.0625 93.789062 145.04688 93.148438 142.54688 93.148438 z M 59.316406 128.99219 L 41.666016 158.33398 L 71.033203 140.70898 C 66.49987 137.47565 62.541406 133.51718 59.316406 128.99219 z M 140.125 129.74219 C 137.19166 133.69218 133.7 137.18386 129.75 140.11719 L 158.33398 158.33398 L 140.125 129.74219 z M 91.414062 132.59375 L 108.74219 132.59375 L 108.74219 134.29688 L 96.414062 151.84375 L 107.78906 151.84375 L 107.78906 155 L 91.257812 155 L 91.257812 153.375 L 103.53906 135.73438 L 91.414062 135.73438 L 91.414062 132.59375 z "
     style="fill:#ffffff;fill-opacity:1;stroke-width:1" />
  <path
     id="path2-7"
     d="M 100.0127,0 82.112302,71.966797 c 11.805361,-6.718401 23.988188,-7.039159 35.775398,-0.02539 z m -9.500017,42.59375 h 4.32813 l 10.343747,16.078125 c 0.4375,0.666667 0.71874,1.125 0.84374,1.375 h 0.0625 c -0.10416,-0.59375 -0.15624,-1.598958 -0.15624,-3.015625 v -14.4375 h 3.57813 V 65 h -4.0625 L 94.747062,48.53125 c -0.270839,-0.416667 -0.4948,-0.848958 -0.671879,-1.296875 h -0.0937 c 0.0833,0.479167 0.12499,1.505208 0.12499,3.078125 V 65 h -3.593789 z"
     style="fill:#ff0000;fill-opacity:1;stroke-width:1" />
  <g
     id="text849"
     style="font-style:normal;font-weight:normal;font-size:32px;line-height:1.25;font-family:sans-serif;letter-spacing:0px;word-spacing:0px;fill:#000000;fill-opacity:1;stroke:none"
     aria-label="N" />
</svg>
